packages/sights/assets/overlays/GOQq1-nN.svg

<svg width="500" height="375" viewBox="0 0 500 375" fill="none" xmlns="http://www.w3.org/2000/svg">
<path d="M7.25 155.75C7.25 155.75 42.25 137.41 110.71 131.9L128.52 117.75" stroke="white" stroke-miterlimit="10"/>
<path d="M158.449 97.36C158.449 97.36 236.979 45.53 260.369 36.82L295.679 25.36C295.679 25.36 395.249 5 406.659 5" stroke="white" stroke-miterlimit="10"/>
<path d="M7.25 206.5C7.25 206.5 68.83 224.23 80.14 310.14L89.01 325.75L92.68 328.19L286.51 369.51" stroke="white" stroke-miterlimit="10"/>
<path d="M47.7305 218.12C47.7305 218.12 73.1105 237.07 88.0905 289.36L493.25 350.96" stroke="white" stroke-miterlimit="10"/>
<path d="M47.7305 369.5L83.8105 346.83C83.8105 346.83 97.0305 332.67 96.3805 328.97" stroke="white" stroke-miterlimit="10"/>
<path d="M7 244.93C26 245.33 45.32 264.76 52.35 292.21C60.29 323.28 49.53 352.87 28.35 358.3C21.35 360.09 14.03 359.02 7.12 355.65" stroke="white" stroke-miterlimit="10"/>
<path d="M133.64 137.75L154.97 139.66L158.45 138.21L161.01 104.27C161.01 104.27 159.48 97.2698 156.57 96.8598C156.57 96.8598 147.1 94.7198 127.91 108.55L129.06 122.47L133.64 137.75Z" stroke="white" stroke-miterlimit="10"/>
<path d="M155.429 139.62C151.379 138.4 145.799 131.21 145.799 131.21C144.879 127.7 145.419 104.39 145.419 104.39C146.709 101.48 152.969 96.8198 152.969 96.8198" stroke="white" stroke-miterlimit="10"/>
<path d="M132.441 133.75C132.441 133.75 123.331 135.99 119.441 135.69C119.441 135.69 116.081 142.03 113.711 144.55L154.441 139.66" stroke="white" stroke-miterlimit="10"/>
<path d="M161.01 103.01C161.01 103.01 244.09 46.4503 267.25 40.0303C267.25 40.0303 351.17 12.6203 477.75 5.03027" stroke="white" stroke-miterlimit="10"/>
<path d="M119.879 135.67L130.179 126.16" stroke="white" stroke-miterlimit="10"/>
<path d="M154.971 139.62C154.971 139.62 484.681 108.82 493.251 114.32" stroke="white" stroke-miterlimit="10"/>
<path d="M416.04 10.4902C416.04 10.4902 390.67 113.22 390.64 119.28L376.7 166.91C376.7 166.91 363.56 244.34 366.31 291.8L365.93 299.14L353.93 326.65L355.45 364.75L356.37 369.53" stroke="white" stroke-miterlimit="10"/>
<path d="M306.25 178.41C306.011 178.721 305.858 179.089 305.807 179.478C305.756 179.866 305.809 180.262 305.96 180.623C306.112 180.985 306.356 181.3 306.669 181.537C306.981 181.773 307.351 181.923 307.74 181.97H336.25L338.43 180.19L339.34 177.19L340.84 176.62C340.84 176.62 360.67 178.22 361.36 180.06L362.36 182.01L360.98 189.34C360.98 189.34 359.49 190.61 358.92 190.61C358.35 190.61 299.3 191.61 290.59 190.61L289.15 188.75V182.9L291.15 180.73C291.15 180.73 301.42 177.95 306.25 178.41Z" stroke="white" stroke-miterlimit="10"/>
<path d="M113.7 144.51L106.7 149.75L96.1901 175.75C96.1901 175.75 90.1901 261.52 96.1901 290.56" stroke="white" stroke-miterlimit="10"/>
</svg>

<svg width="500" height="375" fill="none" xmlns="http://www.w3.org/2000/svg"><path d="M7.25 155.75s35-18.34 103.46-23.85l17.81-14.15M158.449 97.36s78.53-51.83 101.92-60.54l35.31-11.46S395.249 5 406.659 5M7.25 206.5s61.58 17.73 72.89 103.64l8.87 15.61 3.67 2.44 193.83 41.32" stroke="#fff" stroke-miterlimit="10"/><path d="M47.73 218.12s25.38 18.95 40.36 71.24l405.16 61.6M47.73 369.5l36.08-22.67s13.22-14.16 12.57-17.86M7 244.93c19 .4 38.32 19.83 45.35 47.28 7.94 31.07-2.82 60.66-24 66.09-7 1.79-14.32.72-21.23-2.65M133.64 137.75l21.33 1.91 3.48-1.45 2.56-33.94s-1.53-7-4.44-7.41c0 0-9.47-2.14-28.66 11.69l1.15 13.92 4.58 15.28Z" stroke="#fff" stroke-miterlimit="10"/><path d="M155.429 139.62c-4.05-1.22-9.63-8.41-9.63-8.41-.92-3.51-.38-26.82-.38-26.82 1.29-2.91 7.55-7.57 7.55-7.57M132.441 133.75s-9.11 2.24-13 1.94c0 0-3.36 6.34-5.73 8.86l40.73-4.89M161.01 103.01s83.08-56.56 106.24-62.98c0 0 83.92-27.41 210.5-35M119.879 135.67l10.3-9.51" stroke="#fff" stroke-miterlimit="10"/><path d="M154.971 139.62s329.71-30.8 338.28-25.3" stroke="#fff" stroke-miterlimit="10"/><path d="M416.04 10.49s-25.37 102.73-25.4 108.79l-13.94 47.63s-13.14 77.43-10.39 124.89l-.38 7.34-12 27.51 1.52 38.1.92 4.78M306.25 178.41a2.228 2.228 0 0 0-.29 2.213 2.226 2.226 0 0 0 1.78 1.347h28.51l2.18-1.78.91-3 1.5-.57s19.83 1.6 20.52 3.44l1 1.95-1.38 7.33s-1.49 1.27-2.06 1.27c-.57 0-59.62 1-68.33 0l-1.44-1.86v-5.85l2-2.17s10.27-2.78 15.1-2.32ZM113.7 144.51l-7 5.24-10.51 26s-6 85.77 0 114.81" stroke="#fff" stroke-miterlimit="10"/></svg>
